X:782
T:Leaving Barra
C:Joe Buchanan's Scottish Tome - Page 535.1
I:535 1
Z:Carl Allison
R:Slow Air
L:1/4
M:3/4
K:G
(B/c/) |(d2 e)|(d2 c)|(B2 A)|(G2 A)|(B d2)|(G2 E)| D3- | D2 D |
(G2 A)|(B2 c)| e |(d2 e)|(d2 B)|(G2 B)|(d2 B)| A3- | A (B c) |
(d2 e)|(d2 c)|(B2 A)|(G2 A)|(B d2)|G2  E | D3- | D (B c) |
(d2 d)|(c2 B)|(A2 G)|(E2 G)|(d2 B)|(B2 A)| G3- | G2 :|

